X:1
T:[ID 1-109b]
T:[ID 1-109b]
T:Bezeichnung standardisiert: Tantz Tantz ex A#
T:Urheber unbekannt Datum in der hier transkribierten schriftlichen Quelle: vermutlich vor 1767
C:Urheber unbekannt
C:Datum in der hier transkribierten schriftlichen Quelle: vermutlich vor 1767
L:1/8
M:none
K:A
V:1 treble 
V:1
 c2 Bc ABcd | e2 a2 g2 e2 | a2 e2 fedc | dcBA G2 E2 | c2 Bc ABcd | e2 a2 g2 e2 | a2 e2 fedc | %7
"^[sic]" A6 x2 :: e2 ef g2 g2 | d2 de f4 | c2 cd e2 e2 | dedc B4 | c2 Bc ABcd | e2 a2 g2 e2 | %14
 agae fedc | B4 A4 :| %16

